web/workspace/public/assets/icons/briefcase-alt.svg

<svg height="30" viewBox="0 0 30 30" width="30" xmlns="http://www.w3.org/2000/svg"><path d="m21 6v-4h-12v4h-9v22h30v-22zm-10-2h8v2h-8zm17 4v8h-9v-3h-8v3h-9v-8zm-11 7v4h-4v-4zm-15 11v-8h9v3h8v-3h9v8z"/></svg>

<svg xmlns="http://www.w3.org/2000/svg" width="30" height="30" viewBox="0 0 30 30"><path d="M21 6V2H9v4H0v22h30V6h-9zM11 4h8v2h-8V4zm17 4v8h-9v-3h-8v3H2V8h26zm-11 7v4h-4v-4h4zM2 26v-8h9v3h8v-3h9v8H2z"/></svg>
